X: 2707
T: Banks Of Lough Gowna, The
R: jig
M: 6/8
K: Aminor
~A3 AGE|EDE ~G3|~A3 AGE|=c2d ed^c|
~A3 AGE|EDE GAB|cde ged|1 cAA A2G:|2 cAA A2B||
|:cde g2a|gea ged|cde g2a|geg a2B|
cde g2a|gea ged|cde ged|1 cAA A2B:|2 BcB Adc||

